X:18
T:In the Merry Month of May. WHG.018
R:jig
S:W.H.Giles MS,Bampton,Oxfordshire,1839p19
O:England
H:donated by Mrs W.R.Kettlewell to VWML,Apr 1927.
A:Bampton, Oxfordshire
Z:PJHeadford – VMP 2009
M:6/8
L:1/8
Q:3/8=120
K:G
|:D|G2G A2G|c2B e2d|ded dBG|F2G ” for”A2D|
G2G A2G|c2B e2d|ded dcB|AGF G2:|
B|A2A A2B|cBc B2d|g2d g2d|[Bd][Ac][GB] A2B|
A2A A2B|cBc B2d|g2d g2d|(+D.C.+ded cBA)|]

